X: 24516
T: Lucy Farr's
R: barndance
M: 4/4
K: Amajor
(3EFG|A4 A4|A>Bc>A F2 E2|c4 c4|c>de>c B2- B3/2||
B/|c>de>c B2 A2|A>Bc>A F2 ^E2|E>FA>B c>ee>c|c2 B2 B2 =c2|
c>de>c A4|A>B (3cBA F2 ^E2|E>FA>B c>e-e>c|B2 A2 A2||

